!!!COM: Fanny (Mendelssohn) Hensel
!!!CNT: Deutsch
!!!TXO: Deutsch
!!!OTL: "Fru2hling"
!!!LYR: von Eichendorff, Joseph Freiherr
!!!OPR: 
!!!OPS: Op. 7
!!!ONM: No. 3
!!!ENC: Emily Thomas
!!!YOR: Hensel: Ausgewa2hlte Lieder fu2r Singstimme und Klavier
!!!YOR: Breitkopf & Hartel, 1994
!!!ODT: 1846/
!!NB: Vocal melody and text encoded.
**kern	**silbe
=1-	=1
*clefG2	*
*k[f#c#g#d#a#e#]	*
*M2/4	*
*MM[Allegro molto]	*
2r	.
=2	=2
4r	.
8r	.
{16cc#	{U2-
16cc#	-bern
=3	=3
4ff#	Gar-
8cc#	-ten
16a#	durch
16f#	die
=4	=4
4dd#	Lu2f-
8cc#	-te
16cc#	ho2r
16cc#	ich
=5	=5
8ff#	Wan-
8cc##	-der-
8dd#	-vo2-
8a#	-gel
=6	=6
4b}	ziehn,}
4r	.
=7	=7
4r	.
{8.ee#	{das
16dd#	be-
=8	=8
8dd#	-deu-
8cc#	-tet
8.dd#	Fru2h-
16cc#	-lings-
=9	=9
8cc#	-du3f-
8b}	-te,}
{8cc#	{al-
16b	-les
16g#	|
=10	=10
8f#	fa2ngt
8f#	schon
8f#	an
8f#	zu
=11	=11
4.een}	blu2hn,}
{16cc##	{das
16cc##	be-
=12	=12
8dd#	-deu-
8g#	-tet
8a#	Fru2h-
8b	-lings-
=13	=13
8a#	-du2f-
8g#}	-te,}
{8.dd#	{al-
16dd#	-les
=14	=14
16dd#	fa2ngt
16cc#	|
16b	schon
16g#	|
8f#	an
8g#	zu
=15	=15
4a#}	blu2hn.}
4r	.
=16	=16
2r	.
=17	=17
2r	.
=18	=18
2r	.
=19	=19
4r	.
{8.cc#	{Jauch-
16a#	-zen
=20	=20
8g#	mo2cht
8f##	ich,
8.dd#	mo2ch-
16a#	-te
=21	=21
8cc#	wei-
8b}	-nen,}
8r	.
{16b	{Lenz
16a#	und
=22	=22
8a#	Lie-
16g#	|
16g#	-be
8.dd#	muss
16e#	das
=23	=23
8dd#	sein,
8cc##}	|}
8r	.
{16a#	{al-
16b	-le
=24	=24
8.cc#	Wun-
16cc#	-der
16een	wie-
16cc#	|
16a#	-der
16g#	|
=25	=25
4g#	schei-
8f##	-nen
16g#	mit
16a#	dem
=26	=26
8.b	Mon-
16b	-den-
16a#	-glanz
16b	|
16ddn	her-
16ff#	|
=27	=27
8ff#	ein,
8ee#}	|}
4r	.
=28	=28
4r	.
{8.dd#	{jauch-
16b	-zen
=29	=29
8g##	mo2cht
8a#}	ich,}
4r	.
=30	=30
4r	.
{8ee#	{mo2ch-
8ff#	-te
=31	=31
[4ff#	wei-
16ff#]	|
16ee#	|
16dd#	|
16cc#	|
=32	=32
4cc#}	-nen,}
8r	.
{16cc#	{und
16cc#	der
=33	=33
8.ff#	Mond,
16cc#	die
8a#	Ster-
8f#	-ne
=34	=34
4dd#	sa-
8cc#	-gen,
16cc#	und
16cc#	in
=35	=35
8ff#	Tra2u-
8cc##	-men
8dd#	rauscht
8a#	der
=36	=36
4b}	Hain,}
4r	.
=37	=37
4r	.
{8.ee#	{und
16dd#	die
=38	=38
8dd#	nach-
8cc#	-ti-
8.dd#	-gal-
16cc#	-len
=39	=39
8cc#	schla-
8b	-gen,
8cc#	sie
16b	ist
16g#	|
=40	=40
8.f#}	dein,}
{16f#	{ja
8f#	sie
8f#	ist
=41	=41
4.een	dein,
16cc##	und
16dd#	die
=42	=42
8dd#	Nach-
8g#	-ti-
8a#	-gal-
8b	-len
=43	=43
8a#	schla-
8g#}	-gen,}
{8.dd#	{sie
16dd#	ist
=44	=44
16dd#	dein,
16cc#	|
16b	ja
16g#	|
8f#	sie
8g#	ist
=45	=45
4a#}	dein,}
{8cc#	{und
8f#	der
=46	=46
8.ff#	Mond,
16dd#	die
8cc#	Ster-
8b#	-ne
=47	=47
8cc#	sa-
8a#}	-gen,}
{8g#	{und
8f#	die
=48	=48
8.ff#	Nach-
18b#	-ti-
8b#	-gal-
8b#	-len
=49	=49
8cc#	schla-
8aa#	|
8gg#	|
8ff#	|
=50	=50
8ee#	|
8cc#	-gen,
8b	sie
8g#	ist
=51	=51
4f#}	dein,}
4r	.
=52	=52
4r	.
{8.cc#	{sie
16a#	ist
=53	=53
2ff#}	dein!}
==	==
*-	*-
